replication/atom_indices/EAS_59_atomIndicesCap.svg

<?xml version="1.0" encoding="UTF-8"?>
<svg baseProfile="full" version="1.1" viewBox="0 0 800 200" xml:space="preserve" xmlns="http://www.w3.org/2000/svg">

 <!-- END OF HEADER -->
<rect width="800" height="200" fill="#fff"> </rect>
<path class="bond-0" d="m148.27 86.214-4.768 20.403" fill="none" stroke="#000" stroke-width="2px"/>
<path class="bond-0" d="m142.63 88.124-3.337 14.282" fill="none" stroke="#000" stroke-width="2px"/>
<path class="bond-1" d="m148.27 86.214-6.974-6.5384" fill="none" stroke="#000" stroke-width="2px"/>
<path class="bond-1" d="m141.3 79.675-6.975-6.5384" fill="none" stroke="#00f" stroke-width="2px"/>
<path class="bond-2" d="m148.27 86.214 6.895-2.088" fill="none" stroke="#000" stroke-width="2px"/>
<path class="bond-2" d="m155.17 84.126 6.895-2.0881" fill="none" stroke="#cc0" stroke-width="2px"/>
<path class="bond-3" d="m118.31 72.413-2.401 0.7272" fill="none" stroke="#00f" stroke-width="2px"/>
<path class="bond-3" d="m115.91 73.14-2.401 0.7271" fill="none" stroke="#000" stroke-width="2px"/>
<path class="bond-4" d="m102.87 70.193-4.7268-4.4317" fill="none" stroke="#000" stroke-width="2px"/>
<path class="bond-4" d="m98.142 65.761-4.7271-4.4317" fill="none" stroke="#f00" stroke-width="2px"/>
<path class="bond-4" d="m99.411 73.881-4.7271-4.4317" fill="none" stroke="#000" stroke-width="2px"/>
<path class="bond-4" d="m94.684 69.45-4.7271-4.4317" fill="none" stroke="#f00" stroke-width="2px"/>
<path class="bond-5" d="m104.65 80.464-3.783 16.19" fill="none" stroke="#000" stroke-width="2px"/>
<path class="bond-6" d="m92.233 105.08-6.8448 3.771" fill="none" stroke="#000" stroke-width="2px"/>
<path class="bond-7" d="m104.38 105.08 9.454 8.864" fill="none" stroke="#000" stroke-width="2px"/>
<path class="bond-7" d="m109.25 102.72 6.618 6.205" fill="none" stroke="#000" stroke-width="2px"/>
<path class="bond-8" d="m126.2 115.77 8.454-2.56" fill="none" stroke="#000" stroke-width="2px"/>
<path class="bond-9" d="m116.35 122.37-3.394 7.228" fill="none" stroke="#000" stroke-width="2px"/>
<path class="bond-9" d="m112.95 129.6-3.394 7.228" fill="none" stroke="#f00" stroke-width="2px"/>
<path class="bond-10" d="m99.426 140.02-4.5297-0.569" fill="none" stroke="#f00" stroke-width="2px"/>
<path class="bond-10" d="m94.897 139.45-4.5297-0.568" fill="none" stroke="#000" stroke-width="2px"/>
<path class="bond-11" d="m81.689 133.68-3.1428-16.402" fill="none" stroke="#000" stroke-width="2px"/>
<path class="bond-11" d="m86.184 130.27-2.1999-11.481" fill="none" stroke="#000" stroke-width="2px"/>
<path class="bond-12" d="m69.869 109.37-6.0396-2.836" fill="none" stroke="#000" stroke-width="2px"/>
<path class="bond-13" d="m48.805 106.53-8.6436 6.018" fill="none" stroke="#000" stroke-width="2px"/>
<path class="bond-14" d="m54.499 98.106-1.4215-16.763" fill="none" stroke="#000" stroke-width="2px"/>
<path class="bond-14" d="m49.248 96.019-0.9951-11.734" fill="none" stroke="#000" stroke-width="2px"/>
<path class="bond-15" d="m43.747 72.916-4.9368-2.3182" fill="none" stroke="#000" stroke-width="2px"/>
<path class="bond-16" d="m23.786 70.598-8.6436 6.0181" fill="none" stroke="#000" stroke-width="2px"/>
<path class="bond-16" d="m25.378 75.65-6.0505 4.2126" fill="none" stroke="#000" stroke-width="2px"/>
<path class="bond-17" d="m9.4482 85.043 1.4216 16.763" fill="none" stroke="#000" stroke-width="2px"/>
<path class="bond-18" d="m20.2 110.23 4.9369 2.318" fill="none" stroke="#000" stroke-width="2px"/>
<path class="bond-18" d="m23.09 106 3.4558 1.622" fill="none" stroke="#000" stroke-width="2px"/>
<path class="bond-19" d="m176.96 83.1 4.727 4.4318" fill="none" stroke="#cc0" stroke-width="2px"/>
<path class="bond-19" d="m181.69 87.532 4.727 4.4317" fill="none" stroke="#000" stroke-width="2px"/>
<text x="118.307" y="73.1369" fill="#0000FF" font-family="sans-serif" font-size="8px"><tspan>NH:1</tspan></text>
<text x="97.7642" y="80.4636" fill="#000000" font-family="sans-serif" font-size="8px"><tspan>C:2</tspan></text>
<text x="79.0384" y="63.1735" fill="#FF0000" font-family="sans-serif" font-size="8px"><tspan>O:3</tspan></text>
<text x="92.0118" y="105.08" fill="#000000" font-family="sans-serif" font-size="8px"><tspan>C:4</tspan></text>
<text x="110.454" y="122.37" fill="#000000" font-family="sans-serif" font-size="8px"><tspan>C:5</tspan></text>
<text x="134.649" y="115.044" fill="#000000" font-family="sans-serif" font-size="8px"><tspan>C:6</tspan></text>
<text x="99.4263" y="145.253" fill="#FF0000" font-family="sans-serif" font-size="8px"><tspan>O:7</tspan></text>
<text x="74.6264" y="142.105" fill="#000000" font-family="sans-serif" font-size="8px"><tspan>C:8</tspan></text>
<text x="69.869" y="117.277" fill="#000000" font-family="sans-serif" font-size="8px"><tspan>C:9</tspan></text>
<text x="44.174" y="106.532" fill="#000000" font-family="sans-serif" font-size="8px"><tspan>C:10</tspan></text>
<text x="42.0378" y="81.343" fill="#000000" font-family="sans-serif" font-size="8px"><tspan>C:11</tspan></text>
<text x="19.155" y="70.5982" fill="#000000" font-family="sans-serif" font-size="8px"><tspan>C:12</tspan></text>
<text x="-1.59157" y="85.0429" fill="#000000" font-family="sans-serif" font-size="8px"><tspan>C:13</tspan></text>
<text x="0.544572" y="110.232" fill="#000000" font-family="sans-serif" font-size="8px"><tspan>C:14</tspan></text>
<text x="23.4273" y="120.977" fill="#000000" font-family="sans-serif" font-size="8px"><tspan>C:15</tspan></text>
<text x="162.062" y="83.1003" fill="#CCCC00" font-family="sans-serif" font-size="8px"><tspan>S:16</tspan></text>
<text x="180.227" y="100.39" fill="#000000" font-family="sans-serif" font-size="8px"><tspan>C:17</tspan></text>
<text x="70.3745" y="194" fill="#000000" font-family="sans-serif" font-size="12px"><tspan>comp456</tspan></text>
</svg>

<?xml version='1.0' encoding='iso-8859-1'?>
<svg version='1.1' baseProfile='full'
              xmlns='http://www.w3.org/2000/svg'
                      xmlns:rdkit='http://www.rdkit.org/xml'
                      xmlns:xlink='http://www.w3.org/1999/xlink'
                  xml:space='preserve'
width='800px' height='200px' viewBox='0 0 800 200'>
<!-- END OF HEADER -->
<rect style='opacity:1.0;fill:#FFFFFF;stroke:none' width='800' height='200' x='0' y='0'> </rect>
<path class='bond-0' d='M 148.272,86.2137 L 143.504,106.617' style='fill:none;fill-rule:evenodd;stroke:#000000;stroke-width:2px;stroke-linecap:butt;stroke-linejoin:miter;stroke-opacity:1' />
<path class='bond-0' d='M 142.633,88.1237 L 139.296,102.406' style='fill:none;fill-rule:evenodd;stroke:#000000;stroke-width:2px;stroke-linecap:butt;stroke-linejoin:miter;stroke-opacity:1' />
<path class='bond-1' d='M 148.272,86.2137 L 141.298,79.6753' style='fill:none;fill-rule:evenodd;stroke:#000000;stroke-width:2px;stroke-linecap:butt;stroke-linejoin:miter;stroke-opacity:1' />
<path class='bond-1' d='M 141.298,79.6753 L 134.323,73.1369' style='fill:none;fill-rule:evenodd;stroke:#0000FF;stroke-width:2px;stroke-linecap:butt;stroke-linejoin:miter;stroke-opacity:1' />
<path class='bond-2' d='M 148.272,86.2137 L 155.167,84.1257' style='fill:none;fill-rule:evenodd;stroke:#000000;stroke-width:2px;stroke-linecap:butt;stroke-linejoin:miter;stroke-opacity:1' />
<path class='bond-2' d='M 155.167,84.1257 L 162.062,82.0376' style='fill:none;fill-rule:evenodd;stroke:#CCCC00;stroke-width:2px;stroke-linecap:butt;stroke-linejoin:miter;stroke-opacity:1' />
<path class='bond-3' d='M 118.307,72.4127 L 115.906,73.1399' style='fill:none;fill-rule:evenodd;stroke:#0000FF;stroke-width:2px;stroke-linecap:butt;stroke-linejoin:miter;stroke-opacity:1' />
<path class='bond-3' d='M 115.906,73.1399 L 113.505,73.867' style='fill:none;fill-rule:evenodd;stroke:#000000;stroke-width:2px;stroke-linecap:butt;stroke-linejoin:miter;stroke-opacity:1' />
<path class='bond-4' d='M 102.869,70.1927 L 98.1422,65.761' style='fill:none;fill-rule:evenodd;stroke:#000000;stroke-width:2px;stroke-linecap:butt;stroke-linejoin:miter;stroke-opacity:1' />
<path class='bond-4' d='M 98.1422,65.761 L 93.4151,61.3293' style='fill:none;fill-rule:evenodd;stroke:#FF0000;stroke-width:2px;stroke-linecap:butt;stroke-linejoin:miter;stroke-opacity:1' />
<path class='bond-4' d='M 99.4113,73.8812 L 94.6842,69.4495' style='fill:none;fill-rule:evenodd;stroke:#000000;stroke-width:2px;stroke-linecap:butt;stroke-linejoin:miter;stroke-opacity:1' />
<path class='bond-4' d='M 94.6842,69.4495 L 89.9571,65.0178' style='fill:none;fill-rule:evenodd;stroke:#FF0000;stroke-width:2px;stroke-linecap:butt;stroke-linejoin:miter;stroke-opacity:1' />
<path class='bond-5' d='M 104.65,80.4636 L 100.867,96.6537' style='fill:none;fill-rule:evenodd;stroke:#000000;stroke-width:2px;stroke-linecap:butt;stroke-linejoin:miter;stroke-opacity:1' />
<path class='bond-6' d='M 92.233,105.08 L 85.3882,108.851' style='fill:none;fill-rule:evenodd;stroke:#000000;stroke-width:2px;stroke-linecap:butt;stroke-linejoin:miter;stroke-opacity:1' />
<path class='bond-7' d='M 104.376,105.08 L 113.83,113.944' style='fill:none;fill-rule:evenodd;stroke:#000000;stroke-width:2px;stroke-linecap:butt;stroke-linejoin:miter;stroke-opacity:1' />
<path class='bond-7' d='M 109.252,102.721 L 115.87,108.926' style='fill:none;fill-rule:evenodd;stroke:#000000;stroke-width:2px;stroke-linecap:butt;stroke-linejoin:miter;stroke-opacity:1' />
<path class='bond-8' d='M 126.195,115.774 L 134.649,113.214' style='fill:none;fill-rule:evenodd;stroke:#000000;stroke-width:2px;stroke-linecap:butt;stroke-linejoin:miter;stroke-opacity:1' />
<path class='bond-9' d='M 116.346,122.37 L 112.952,129.598' style='fill:none;fill-rule:evenodd;stroke:#000000;stroke-width:2px;stroke-linecap:butt;stroke-linejoin:miter;stroke-opacity:1' />
<path class='bond-9' d='M 112.952,129.598 L 109.558,136.826' style='fill:none;fill-rule:evenodd;stroke:#FF0000;stroke-width:2px;stroke-linecap:butt;stroke-linejoin:miter;stroke-opacity:1' />
<path class='bond-10' d='M 99.4263,140.017 L 94.8966,139.448' style='fill:none;fill-rule:evenodd;stroke:#FF0000;stroke-width:2px;stroke-linecap:butt;stroke-linejoin:miter;stroke-opacity:1' />
<path class='bond-10' d='M 94.8966,139.448 L 90.3669,138.88' style='fill:none;fill-rule:evenodd;stroke:#000000;stroke-width:2px;stroke-linecap:butt;stroke-linejoin:miter;stroke-opacity:1' />
<path class='bond-11' d='M 81.6893,133.679 L 78.5465,117.277' style='fill:none;fill-rule:evenodd;stroke:#000000;stroke-width:2px;stroke-linecap:butt;stroke-linejoin:miter;stroke-opacity:1' />
<path class='bond-11' d='M 86.1835,130.267 L 83.9836,118.786' style='fill:none;fill-rule:evenodd;stroke:#000000;stroke-width:2px;stroke-linecap:butt;stroke-linejoin:miter;stroke-opacity:1' />
<path class='bond-12' d='M 69.869,109.368 L 63.8294,106.532' style='fill:none;fill-rule:evenodd;stroke:#000000;stroke-width:2px;stroke-linecap:butt;stroke-linejoin:miter;stroke-opacity:1' />
<path class='bond-13' d='M 48.8049,106.532 L 40.1613,112.55' style='fill:none;fill-rule:evenodd;stroke:#000000;stroke-width:2px;stroke-linecap:butt;stroke-linejoin:miter;stroke-opacity:1' />
<path class='bond-14' d='M 54.4991,98.1058 L 53.0776,81.343' style='fill:none;fill-rule:evenodd;stroke:#000000;stroke-width:2px;stroke-linecap:butt;stroke-linejoin:miter;stroke-opacity:1' />
<path class='bond-14' d='M 49.248,96.0186 L 48.2529,84.2847' style='fill:none;fill-rule:evenodd;stroke:#000000;stroke-width:2px;stroke-linecap:butt;stroke-linejoin:miter;stroke-opacity:1' />
<path class='bond-15' d='M 43.7473,72.9164 L 38.8105,70.5982' style='fill:none;fill-rule:evenodd;stroke:#000000;stroke-width:2px;stroke-linecap:butt;stroke-linejoin:miter;stroke-opacity:1' />
<path class='bond-16' d='M 23.786,70.5982 L 15.1424,76.6163' style='fill:none;fill-rule:evenodd;stroke:#000000;stroke-width:2px;stroke-linecap:butt;stroke-linejoin:miter;stroke-opacity:1' />
<path class='bond-16' d='M 25.3784,75.6503 L 19.3279,79.8629' style='fill:none;fill-rule:evenodd;stroke:#000000;stroke-width:2px;stroke-linecap:butt;stroke-linejoin:miter;stroke-opacity:1' />
<path class='bond-17' d='M 9.44821,85.0429 L 10.8698,101.806' style='fill:none;fill-rule:evenodd;stroke:#000000;stroke-width:2px;stroke-linecap:butt;stroke-linejoin:miter;stroke-opacity:1' />
<path class='bond-18' d='M 20.2,110.232 L 25.1369,112.55' style='fill:none;fill-rule:evenodd;stroke:#000000;stroke-width:2px;stroke-linecap:butt;stroke-linejoin:miter;stroke-opacity:1' />
<path class='bond-18' d='M 23.0895,106.004 L 26.5453,107.626' style='fill:none;fill-rule:evenodd;stroke:#000000;stroke-width:2px;stroke-linecap:butt;stroke-linejoin:miter;stroke-opacity:1' />
<path class='bond-19' d='M 176.961,83.1003 L 181.688,87.5321' style='fill:none;fill-rule:evenodd;stroke:#CCCC00;stroke-width:2px;stroke-linecap:butt;stroke-linejoin:miter;stroke-opacity:1' />
<path class='bond-19' d='M 181.688,87.5321 L 186.415,91.9638' style='fill:none;fill-rule:evenodd;stroke:#000000;stroke-width:2px;stroke-linecap:butt;stroke-linejoin:miter;stroke-opacity:1' />
<text x='118.307' y='73.1369' style='font-size:8px;font-style:normal;font-weight:normal;fill-opacity:1;stroke:none;font-family:sans-serif;text-anchor:start;fill:#0000FF' ><tspan>NH:1</tspan></text>
<text x='97.7642' y='80.4636' style='font-size:8px;font-style:normal;font-weight:normal;fill-opacity:1;stroke:none;font-family:sans-serif;text-anchor:start;fill:#000000' ><tspan>C:2</tspan></text>
<text x='79.0384' y='63.1735' style='font-size:8px;font-style:normal;font-weight:normal;fill-opacity:1;stroke:none;font-family:sans-serif;text-anchor:start;fill:#FF0000' ><tspan>O:3</tspan></text>
<text x='92.0118' y='105.08' style='font-size:8px;font-style:normal;font-weight:normal;fill-opacity:1;stroke:none;font-family:sans-serif;text-anchor:start;fill:#000000' ><tspan>C:4</tspan></text>
<text x='110.454' y='122.37' style='font-size:8px;font-style:normal;font-weight:normal;fill-opacity:1;stroke:none;font-family:sans-serif;text-anchor:start;fill:#000000' ><tspan>C:5</tspan></text>
<text x='134.649' y='115.044' style='font-size:8px;font-style:normal;font-weight:normal;fill-opacity:1;stroke:none;font-family:sans-serif;text-anchor:start;fill:#000000' ><tspan>C:6</tspan></text>
<text x='99.4263' y='145.253' style='font-size:8px;font-style:normal;font-weight:normal;fill-opacity:1;stroke:none;font-family:sans-serif;text-anchor:start;fill:#FF0000' ><tspan>O:7</tspan></text>
<text x='74.6264' y='142.105' style='font-size:8px;font-style:normal;font-weight:normal;fill-opacity:1;stroke:none;font-family:sans-serif;text-anchor:start;fill:#000000' ><tspan>C:8</tspan></text>
<text x='69.869' y='117.277' style='font-size:8px;font-style:normal;font-weight:normal;fill-opacity:1;stroke:none;font-family:sans-serif;text-anchor:start;fill:#000000' ><tspan>C:9</tspan></text>
<text x='44.174' y='106.532' style='font-size:8px;font-style:normal;font-weight:normal;fill-opacity:1;stroke:none;font-family:sans-serif;text-anchor:start;fill:#000000' ><tspan>C:10</tspan></text>
<text x='42.0378' y='81.343' style='font-size:8px;font-style:normal;font-weight:normal;fill-opacity:1;stroke:none;font-family:sans-serif;text-anchor:start;fill:#000000' ><tspan>C:11</tspan></text>
<text x='19.155' y='70.5982' style='font-size:8px;font-style:normal;font-weight:normal;fill-opacity:1;stroke:none;font-family:sans-serif;text-anchor:start;fill:#000000' ><tspan>C:12</tspan></text>
<text x='-1.59157' y='85.0429' style='font-size:8px;font-style:normal;font-weight:normal;fill-opacity:1;stroke:none;font-family:sans-serif;text-anchor:start;fill:#000000' ><tspan>C:13</tspan></text>
<text x='0.544572' y='110.232' style='font-size:8px;font-style:normal;font-weight:normal;fill-opacity:1;stroke:none;font-family:sans-serif;text-anchor:start;fill:#000000' ><tspan>C:14</tspan></text>
<text x='23.4273' y='120.977' style='font-size:8px;font-style:normal;font-weight:normal;fill-opacity:1;stroke:none;font-family:sans-serif;text-anchor:start;fill:#000000' ><tspan>C:15</tspan></text>
<text x='162.062' y='83.1003' style='font-size:8px;font-style:normal;font-weight:normal;fill-opacity:1;stroke:none;font-family:sans-serif;text-anchor:start;fill:#CCCC00' ><tspan>S:16</tspan></text>
<text x='180.227' y='100.39' style='font-size:8px;font-style:normal;font-weight:normal;fill-opacity:1;stroke:none;font-family:sans-serif;text-anchor:start;fill:#000000' ><tspan>C:17</tspan></text>
<text x='70.3745' y='194' style='font-size:12px;font-style:normal;font-weight:normal;fill-opacity:1;stroke:none;font-family:sans-serif;text-anchor:start;fill:#000000' ><tspan>comp456</tspan></text>
</svg>
